M201 X500.00 Y500.00 Z100.00 E5000.00 ;Setup machine max acceleration
M203 X500.00 Y500.00 Z10.00 E50.00 ;Setup machine max feedrate
M204 P500.00 R1000.00 T500.00 ;Setup Print/Retract/Travel acceleration
M205 X8.00 Y8.00 Z0.40 E5.00 ;Setup Jerk
M220 S100 ;Reset Feedrate
M221 S100 ;Reset Flowrate

G28 ;Home
G21 ;Metric units

G1 Z0.2 F3000 ;Raise Z

G01 X170.0 Y150.0 F2500
G01 X170.0 Y150.0 Z0
G01 X155.04 Y130.62
G01 X132.46 Y140.21
G01 X136.02 Y164.58
G01 X160.65 Y167.34
G01 X169.66 Y144.04
G01 X149.24 Y129.24
G01 X129.47 Y145.37
G01 X140.1 Y168.92000000000002
G01 X165.98 Y164.68
G01 X168.64 Y138.18
G01 X143.33 Y128.53
G01 X127.1 Y150.81
G01 X144.64 Y172.76
G01 X170.94 Y161.44
G01 X166.97 Y132.5
G01 X137.42 Y128.5
G01 X125.38 Y156.46
G01 X149.54 Y176.02
G01 X175.47 Y157.68
G01 X164.67 Y127.1
G01 X131.6 Y129.16
G01 X124.34 Y162.22
G01 X154.75 Y178.66
G01 X179.48 Y153.46
G01 X161.78 Y122.06
G01 X125.95 Y130.47
G01 X123.98 Y167.99
G01 X160.16 Y180.65
G01 X182.93 Y148.86
G01 X158.37 Y117.45
G01 X120.58 Y132.42000000000002
G01 X124.31 Y173.68
G01 X165.69 Y181.95
G01 X185.75 Y143.94
G01 X154.48 Y113.35
G01 X115.56 Y134.97
G01 X125.32 Y179.2
G01 X171.25 Y182.57
G01 X187.92000000000002 Y138.81
G01 X150.19 Y109.82
G01 X110.97 Y138.06
G01 X126.97 Y184.46
G01 X176.75 Y182.48
G01 X189.4 Y133.54
G01 X145.58 Y106.91
G01 X106.88 Y141.64
G01 X129.22 Y189.38
G01 X182.07999999999998 Y181.72
G01 X190.18 Y128.23
G01 X140.73 Y104.66
G01 X103.36 Y145.63
G01 X132.04 Y193.87
G01 X187.16 Y180.3
G01 X190.26 Y122.98
G01 X135.73 Y103.1
G01 X100.46000000000001 Y149.97
G01 X135.36 Y197.86
G01 X191.91 Y178.25
G01 X189.64 Y117.87
G01 X130.68 Y102.25
G01 X98.22999999999999 Y154.55
G01 X139.11 Y201.28
G01 X196.24 Y175.63
G01 X188.36 Y113.0
G01 X125.66 Y102.12
G01 X96.69 Y159.31
G01 X143.23 Y204.09
G01 X200.07 Y172.49
G01 X186.43 Y108.45
G01 X120.77 Y102.68
G01 X95.86 Y164.14
G01 X147.61 Y206.24
G01 X203.36 Y168.9
G01 X183.91 Y104.3
G01 X116.1 Y103.93
G01 X95.75 Y168.96
G01 X152.19 Y207.69
G01 X206.02 Y164.92
G01 X180.85 Y100.64
G01 X111.74000000000001 Y105.84
G01 X96.35 Y173.67000000000002
G01 X156.87 Y208.43
G01 X208.04 Y160.65
G01 X177.32 Y97.52000000000001
G01 X107.77000000000001 Y108.35
G01 X97.65 Y178.18
G01 X161.55 Y208.44
G01 X209.36 Y156.16
G01 X173.38 Y95.0
G01 X104.25999999999999 Y111.42
G01 X99.62 Y182.4
G01 X166.15 Y207.73
G01 X209.96 Y151.55
G01 X169.13 Y93.13
G01 X101.28 Y114.97999999999999
G01 X102.21000000000001 Y186.25
G01 X170.57999999999998 Y206.32
G01 X209.84 Y146.91
G01 X164.64 Y91.96000000000001
G01 X98.89 Y118.97
G01 X105.37 Y189.66
G01 X174.73 Y204.23
G01 X208.99 Y142.33
G01 X160.0 Y91.49000000000001
G01 X97.14 Y123.3
G01 X109.03999999999999 Y192.55
G01 X178.54 Y201.51
G01 X207.44 Y137.9
G01 X155.31 Y91.74000000000001
G01 X96.07 Y127.88
G01 X113.15 Y194.87
G01 X181.92000000000002 Y198.2
G01 X205.21 Y133.72
G01 X150.65 Y92.72
G01 X95.71000000000001 Y132.64
G01 X117.63 Y196.56
G01 X184.81 Y194.37
G01 X202.32999999999998 Y129.86
G01 X146.13 Y94.4
G01 X96.05 Y137.47
G01 X122.38 Y197.57999999999998
G01 X187.14 Y190.07999999999998
G01 X198.86 Y126.41
G01 X141.82 Y96.77000000000001
G01 X97.12 Y142.29

G91 ;Relative positioning
G1 Z5 F2400 ;Raise Z
G1 Z10 ;Raise Z more
G90 ;Absolute positionning

G1 X0 Y{machine_depth} ;Present print
M106 S0 ;Turn-off fan

M84 X Y E ;Disable all steppers but Z
