M201 X500.00 Y500.00 Z100.00 E5000.00 ;Setup machine max acceleration
M203 X500.00 Y500.00 Z10.00 E50.00 ;Setup machine max feedrate
M204 P500.00 R1000.00 T500.00 ;Setup Print/Retract/Travel acceleration
M205 X8.00 Y8.00 Z0.40 E5.00 ;Setup Jerk
M220 S100 ;Reset Feedrate
M221 S100 ;Reset Flowrate

G28 ;Home
G21 ;Metric units

G1 Z0.2 F3000 ;Raise Z

G01 X225.0 Y150.0 F2500
G01 X225.0 Y150.0 Z0
G01 X221.32 Y161.18
G01 X211.62 Y168.11
G01 X199.48 Y168.1
G01 X189.36 Y161.01
G01 X184.98 Y149.31
G01 X187.93 Y137.17
G01 X197.14 Y128.92000000000002
G01 X209.18 Y127.46000000000001
G01 X219.63 Y133.19
G01 X224.62 Y143.85
G01 X222.29 Y155.4
G01 X213.49 Y163.43
G01 X201.44 Y164.86
G01 X190.54 Y159.03
G01 X184.79 Y147.94
G01 X186.27 Y135.54
G01 X194.43 Y126.25
G01 X206.21 Y123.36
G01 X217.27 Y127.8
G01 X223.49 Y137.8
G01 X222.55 Y149.54
G01 X214.77 Y158.56
G01 X202.97 Y161.43
G01 X191.45 Y156.93
G01 X184.41 Y146.61
G01 X184.41 Y134.12
G01 X191.39 Y123.93
G01 X202.75 Y119.65
G01 X214.25 Y122.74
G01 X221.62 Y131.93
G01 X222.09 Y143.7
G01 X215.43 Y153.59
G01 X204.05 Y157.84
G01 X192.07999999999998 Y154.75
G01 X183.86 Y145.34
G01 X182.37 Y132.94
G01 X188.08 Y121.99
G01 X198.85 Y116.4
G01 X210.63 Y118.09
G01 X219.04 Y126.33
G01 X220.91 Y137.96
G01 X215.48 Y148.58
G01 X204.68 Y154.16
G01 X192.43 Y152.52
G01 X183.14 Y144.15
G01 X180.18 Y132.02
G01 X184.55 Y120.47
G01 X194.56 Y113.64
G01 X206.47 Y113.92
G01 X215.79 Y121.1
G01 X219.03 Y132.42000000000002
G01 X214.91 Y143.61
G01 X204.85 Y150.44
G01 X192.48 Y150.28
G01 X182.27 Y143.08
G01 X177.88 Y131.39
G01 X180.83 Y119.4
G01 X189.96 Y111.42
G01 X201.81 Y110.28
G01 X211.93 Y116.3
G01 X216.49 Y127.16
G01 X213.73 Y138.77
G01 X204.56 Y146.74
G01 X192.26 Y148.06
G01 X181.25 Y142.13
G01 X175.5 Y131.05
G01 X177.0 Y118.8
G01 X185.12 Y109.78999999999999
G01 X196.74 Y107.25
G01 X207.5 Y112.02000000000001
G01 X213.32999999999998 Y122.26
G01 X211.96 Y134.11
G01 X203.81 Y143.13
G01 X191.75 Y145.9
G01 X180.12 Y141.33
G01 X173.08 Y131.02
G01 X173.12 Y118.67
G01 X180.09 Y108.75999999999999
G01 X191.34 Y104.86
G01 X202.59 Y108.32
G01 X209.59 Y117.78999999999999
G01 X209.65 Y129.72
G01 X202.62 Y139.65
G01 X190.98 Y143.84
G01 X178.88 Y140.69
G01 X170.67 Y131.29
G01 X169.23 Y119.03999999999999
G01 X174.97 Y108.37
G01 X185.67 Y103.15
G01 X197.25 Y105.24000000000001
G01 X205.32999999999998 Y113.82
G01 X206.81 Y125.66
G01 X201.02 Y136.35
G01 X189.96 Y141.91
G01 X177.57 Y140.23
G01 X168.29 Y131.88
G01 X165.4 Y119.88
G01 X169.83 Y108.6
G01 X179.83 Y102.15
G01 X191.57 Y102.85
G01 X200.62 Y110.41
G01 X203.5 Y121.99
G01 X199.02 Y133.3
G01 X188.7 Y140.13
G01 X176.21 Y139.94
G01 X165.99 Y132.76
G01 X161.69 Y121.2
G01 X164.75 Y109.47
G01 X173.9 Y101.88
G01 X185.65 Y101.18
G01 X195.53 Y107.6
G01 X199.77 Y118.76
G01 X196.67000000000002 Y130.52
G01 X187.24 Y138.54
G01 X174.81 Y139.85
G01 X163.82 Y133.93
G01 X158.17000000000002 Y122.97
G01 X159.8 Y110.97
G01 X167.99 Y102.34
G01 X179.57 Y100.24000000000001
G01 X190.14 Y105.45
G01 X195.68 Y116.02000000000001
G01 X194.01 Y128.07
G01 X185.6 Y137.16
G01 X173.41 Y139.94
G01 X161.79 Y135.38
G01 X154.88 Y125.17
G01 X155.07 Y113.06
G01 X162.17 Y103.52000000000001
G01 X173.41 Y100.07
G01 X184.53 Y103.97
G01 X191.29 Y113.81
G01 X191.07 Y125.98
G01 X183.81 Y136.01
G01 X172.04 Y140.22
G01 X159.96 Y137.09
G01 X151.87 Y127.78
G01 X150.62 Y115.72999999999999
G01 X156.53 Y105.42
G01 X167.29 Y100.65
G01 X178.79 Y103.2
G01 X186.68 Y112.17
G01 X187.91 Y124.28
G01 X181.89 Y135.11
G01 X170.71 Y140.69
G01 X158.34 Y139.02
G01 X149.21 Y130.74
G01 X146.53 Y118.94
G01 X151.17000000000002 Y107.99000000000001
G01 X161.28 Y101.97999999999999
G01 X173.01 Y103.14
G01 X181.91 Y111.11
G01 X184.57 Y122.99
G01 X179.89 Y134.46
G01 X169.46 Y141.34
G01 X156.98 Y141.16
G01 X146.92000000000002 Y134.03
G01 X142.86 Y122.63
G01 X146.16 Y111.21000000000001
G01 X155.48 Y104.03
G01 X167.27 Y103.8
G01 X177.05 Y110.65
G01 X181.12 Y122.13
G01 X177.84 Y134.07
G01 X168.3 Y142.15
G01 X155.89 Y143.46
G01 X145.05 Y137.59
G01 X139.66 Y126.75
G01 X141.57999999999998 Y115.03
G01 X149.98 Y106.78999999999999
G01 X161.65 Y105.15
G01 X172.19 Y110.78999999999999
G01 X177.6 Y121.7
G01 X175.77 Y133.96
G01 X167.26 Y143.12
G01 X155.09 Y145.9
G01 X143.64 Y141.36
G01 X136.99 Y131.25
G01 X137.5 Y119.38
G01 X144.86 Y110.2
G01 X156.26 Y107.18
G01 X167.39 Y111.53
G01 X174.06 Y121.72
G01 X173.71 Y134.11
G01 X166.36 Y144.22
G01 X154.61 Y148.43
G01 X142.7 Y145.29
G01 X134.9 Y136.05
G01 X133.99 Y124.2
G01 X140.2 Y114.22
G01 X151.16 Y109.86
G01 X162.74 Y112.85
G01 X170.58 Y122.18
G01 X171.7 Y134.52
G01 X165.61 Y145.44
G01 X154.45 Y151.02
G01 X142.25 Y149.32
G01 X133.41 Y141.08
G01 X131.09 Y129.43
G01 X136.07 Y118.77
G01 X146.44 Y113.14
G01 X158.29 Y114.72999999999999
G01 X167.18 Y123.06
G01 X169.78 Y135.18
G01 X165.03 Y146.75
G01 X154.62 Y153.63
G01 X142.31 Y153.4
G01 X132.54 Y146.26
G01 X128.86 Y134.97
G01 X132.54 Y123.8
G01 X142.16 Y116.97999999999999
G01 X154.12 Y117.14
G01 X163.94 Y124.35
G01 X167.96 Y136.08
G01 X164.63 Y148.13
G01 X155.12 Y156.2
G01 X142.87 Y157.44
G01 X132.32999999999998 Y151.52
G01 X127.32 Y140.75
G01 X129.65 Y129.22
G01 X138.39 Y121.31
G01 X150.28 Y120.03999999999999
G01 X160.9 Y126.03
G01 X166.29 Y137.2
G01 X164.43 Y149.56
G01 X155.95 Y158.71
G01 X143.93 Y161.4
G01 X132.76 Y156.78
G01 X126.50999999999999 Y146.69
G01 X127.45 Y134.96
G01 X135.18 Y126.06
G01 X146.84 Y123.39
G01 X158.11 Y128.07
G01 X164.79 Y138.51
G01 X164.41 Y151.01
G01 X157.09 Y161.1
G01 X145.48 Y165.21
G01 X133.84 Y161.96
G01 X126.44 Y152.68
G01 X125.97 Y140.93
G01 X132.59 Y131.16
G01 X143.85 Y127.12
G01 X155.59 Y130.43
G01 X163.48 Y140.0
G01 X164.6 Y152.45
G01 X158.53 Y163.35
G01 X147.5 Y168.81
G01 X135.56 Y166.97
G01 X127.1 Y158.64
G01 X125.24000000000001 Y147.02
G01 X130.65 Y136.54
G01 X141.35 Y131.19
G01 X153.41 Y133.07
G01 X162.38 Y141.63
G01 X164.98 Y153.86
G01 X160.25 Y165.4
G01 X149.95 Y172.14
G01 X137.88 Y171.74
G01 X128.49 Y164.47
G01 X125.25999999999999 Y153.17
G01 X129.39 Y142.11
G01 X139.38 Y135.52
G01 X151.57 Y135.95
G01 X161.5 Y143.38
G01 X165.54 Y155.22
G01 X162.23 Y167.24
G01 X152.81 Y175.15
G01 X140.78 Y176.19
G01 X130.59 Y170.1
G01 X126.03999999999999 Y159.26
G01 X128.82 Y147.79
G01 X137.96 Y140.05
G01 X150.12 Y139.02
G01 X160.87 Y145.22
G01 X166.29 Y156.49
G01 X164.44 Y168.82
G01 X156.03 Y177.8
G01 X144.21 Y180.26
G01 X133.37 Y175.42000000000002
G01 X127.56 Y165.2
G01 X128.96 Y153.48
G01 X137.11 Y144.71
G01 X149.06 Y142.24
G01 X160.48 Y147.11
G01 X167.21 Y157.65
G01 X166.84 Y170.11
G01 X159.56 Y180.03
G01 X148.12 Y183.88
G01 X136.79 Y180.37
G01 X129.8 Y170.91
G01 X129.8 Y159.11
G01 X136.84 Y149.43
G01 X148.42000000000002 Y145.55
G01 X160.33 Y149.02
G01 X168.28 Y158.68
G01 X169.4 Y171.1
G01 X163.36 Y181.81
G01 X152.46 Y187.0
G01 X140.79 Y184.86
G01 X132.73 Y176.31
G01 X131.32 Y164.59
G01 X137.16 Y154.13
G01 X148.2 Y148.9
G01 X160.44 Y150.92
G01 X169.48 Y159.57
G01 X172.07 Y171.76
G01 X167.36 Y183.12
G01 X157.16 Y189.56
G01 X145.32 Y188.82999999999998
G01 X136.3 Y181.29
G01 X133.5 Y169.82999999999998
G01 X138.06 Y158.75
G01 X148.39 Y152.23
G01 X160.79 Y152.78
G01 X170.8 Y160.29
G01 X174.83 Y172.07999999999998
G01 X171.5 Y183.92000000000002
G01 X162.14 Y191.53
G01 X150.31 Y192.22
G01 X140.45 Y185.81
G01 X136.31 Y174.75
G01 X139.51 Y163.2
G01 X149.0 Y155.5
G01 X161.37 Y154.57
G01 X172.21 Y160.82
G01 X177.62 Y172.05
G01 X175.72 Y184.2
G01 X167.34 Y192.87
G01 X155.67000000000002 Y194.96
G01 X145.12 Y189.77
G01 X139.69 Y179.28
G01 X141.5 Y167.44
G01 X150.0 Y158.66
G01 X162.18 Y156.25
G01 X173.68 Y161.17
G01 X180.39 Y171.67000000000002
G01 X179.96 Y183.95
G01 X172.68 Y193.56
G01 X161.34 Y197.03
G01 X150.25 Y193.13
G01 X143.61 Y183.36
G01 X143.99 Y171.38
G01 X151.38 Y161.65
G01 X163.19 Y157.81
G01 X175.2 Y161.32
G01 X183.11 Y170.94
G01 X184.15 Y183.19
G01 X178.07 Y193.59
G01 X167.22 Y198.38
G01 X155.75 Y195.82999999999998
G01 X147.99 Y186.92000000000002
G01 X146.94 Y174.98
G01 X153.12 Y164.44
G01 X164.39 Y159.21
G01 X176.73 Y161.26
G01 X185.74 Y169.87
G01 X188.23 Y181.9
G01 X183.43 Y192.96
G01 X173.23 Y199.0
G01 X161.53 Y197.82999999999998
G01 X152.77 Y189.91
G01 X150.31 Y178.18
G01 X155.19 Y166.97
G01 X165.75 Y160.43
G01 X178.25 Y161.0
G01 X188.22 Y168.47
G01 X192.13 Y180.11
G01 X188.68 Y191.66
G01 X179.27 Y198.87
G01 X167.52 Y199.11
G01 X157.88 Y192.29
G01 X154.03 Y180.93
G01 X157.54 Y169.21
G01 X167.25 Y161.46
G01 X179.72 Y160.53
G01 X190.51 Y166.76
G01 X195.78 Y177.85
G01 X193.73 Y189.73
G01 X185.26 Y198.01
G01 X173.62 Y199.64
G01 X163.23 Y194.01
G01 X158.06 Y183.19
G01 X160.14 Y171.14
G01 X168.86 Y162.29
G01 X181.13 Y159.87
G01 X192.59 Y164.76
G01 X199.14 Y175.15
G01 X198.52 Y187.18
G01 X191.09 Y196.41
G01 X179.73 Y199.41
G01 X168.74 Y195.06
G01 X162.32 Y184.93
G01 X162.95 Y172.72
G01 X170.55 Y162.89
G01 X182.45 Y159.02
G01 X194.4 Y162.51
G01 X202.15 Y172.04
G01 X202.97 Y184.06
G01 X196.69 Y194.1
G01 X185.77 Y198.44
G01 X174.34 Y195.43
G01 X166.75 Y186.13
G01 X165.92 Y173.93
G01 X172.29 Y163.26
G01 X183.65 Y158.0
G01 X195.93 Y160.04
G01 X204.76 Y168.57
G01 X207.0 Y180.4
G01 X201.97 Y191.12
G01 X191.63 Y196.73
G01 X179.93 Y195.1
G01 X171.29 Y186.77
G01 X169.01 Y174.75
G01 X174.06 Y163.4
G01 X184.7 Y156.82
G01 X197.14 Y157.38
G01 X206.92000000000002 Y164.8
G01 X210.56 Y176.27
G01 X206.84 Y187.52
G01 X197.25 Y194.31
G01 X185.43 Y194.09
G01 X175.85 Y186.85
G01 X172.16 Y175.18
G01 X175.82 Y163.3
G01 X185.6 Y155.5
G01 X198.01 Y154.57
G01 X208.61 Y160.77
G01 X213.59 Y171.73
G01 X211.23 Y183.32999999999998
G01 X202.51 Y191.22
G01 X190.75 Y192.41
G01 X180.38 Y186.36
G01 X175.32 Y175.21
G01 X177.54 Y162.98
G01 X186.32 Y154.07
G01 X198.53 Y151.66
G01 X209.78 Y156.55
G01 X216.03 Y166.84
G01 X215.07999999999998 Y178.64
G01 X207.36 Y187.51
G01 X195.82 Y190.09
G01 X184.8 Y185.32
G01 X178.45 Y174.85
G01 X179.19 Y162.44
G01 X186.84 Y152.55
G01 X198.68 Y148.7
G01 X210.43 Y152.21
G01 X217.86 Y161.68
G01 X218.32 Y173.51
G01 X211.71 Y183.23
G01 X200.56 Y187.16
G01 X189.05 Y183.74
G01 X181.49 Y174.11
G01 X180.74 Y161.7
G01 X187.16 Y150.96
G01 X198.45 Y145.73
G01 X210.54 Y147.81
G01 X219.04 Y156.32
G01 X220.9 Y168.01
G01 X215.5 Y178.45
G01 X204.9 Y183.69
G01 X193.06 Y181.66
G01 X184.4 Y172.99
G01 X182.18 Y160.76
G01 X187.27 Y149.33
G01 X197.86 Y142.79
G01 X210.1 Y143.42
G01 X219.56 Y150.85
G01 X222.79 Y162.24
G01 X218.68 Y173.25
G01 X208.77 Y179.7
G01 X196.77 Y179.1
G01 X187.14 Y171.53
G01 X183.47 Y159.65
G01 X187.16 Y147.69
G01 X196.89 Y139.93
G01 X209.12 Y139.1
G01 X219.39 Y145.35
G01 X223.96 Y156.27
G01 X221.18 Y167.69
G01 X212.11 Y175.28
G01 X200.12 Y176.12
G01 X189.66 Y169.75
G01 X184.6 Y158.38
G01 X186.83 Y146.07
G01 X195.56 Y137.21
G01 X207.61 Y134.92
G01 X218.55 Y139.91
G01 X224.38 Y150.2
G01 X222.98 Y161.87
G01 X214.88 Y170.49
G01 X203.07999999999998 Y172.75
G01 X191.92000000000002 Y167.67000000000002
G01 X185.54 Y156.99
G01 X186.29 Y144.5
G01 X193.9 Y134.66
G01 X205.57999999999998 Y130.95
G01 X217.04 Y134.6
G01 X224.06 Y144.12
G01 X224.06 Y155.88
G01 X217.04 Y165.4
G01 X205.57999999999998 Y169.05
G01 X193.9 Y165.34
G01 X186.29 Y155.5
G01 X185.54 Y143.01
G01 X191.92000000000002 Y132.32999999999998
G01 X203.07999999999998 Y127.25
G01 X214.88 Y129.51
G01 X222.98 Y138.13
G01 X224.38 Y149.8
G01 X218.55 Y160.09
G01 X207.61 Y165.08
G01 X195.56 Y162.79
G01 X186.83 Y153.93
G01 X184.6 Y141.62
G01 X189.66 Y130.25
G01 X200.12 Y123.88
G01 X212.11 Y124.72
G01 X221.18 Y132.31
G01 X223.96 Y143.73
G01 X219.39 Y154.65
G01 X209.12 Y160.9
G01 X196.89 Y160.07
G01 X187.16 Y152.31
G01 X183.47 Y140.35
G01 X187.14 Y128.47
G01 X196.77 Y120.9
G01 X208.77 Y120.3
G01 X218.68 Y126.75
G01 X222.79 Y137.76
G01 X219.56 Y149.15
G01 X210.1 Y156.58
G01 X197.86 Y157.21
G01 X187.27 Y150.67
G01 X182.18 Y139.24
G01 X184.4 Y127.01
G01 X193.06 Y118.34
G01 X204.9 Y116.31
G01 X215.5 Y121.55
G01 X220.9 Y131.99
G01 X219.04 Y143.68
G01 X210.54 Y152.19
G01 X198.45 Y154.27
G01 X187.16 Y149.04
G01 X180.74 Y138.3
G01 X181.49 Y125.89
G01 X189.05 Y116.25999999999999
G01 X200.56 Y112.84
G01 X211.71 Y116.77000000000001
G01 X218.32 Y126.49
G01 X217.86 Y138.32
G01 X210.43 Y147.79
G01 X198.68 Y151.3
G01 X186.84 Y147.45
G01 X179.19 Y137.56
G01 X178.45 Y125.15
G01 X184.8 Y114.68
G01 X195.82 Y109.91
G01 X207.36 Y112.49000000000001
G01 X215.07999999999998 Y121.36
G01 X216.03 Y133.16
G01 X209.78 Y143.45
G01 X198.53 Y148.34
G01 X186.32 Y145.93
G01 X177.54 Y137.02
G01 X175.32 Y124.78999999999999
G01 X180.38 Y113.64
G01 X190.75 Y107.59
G01 X202.51 Y108.78
G01 X211.23 Y116.67
G01 X213.59 Y128.27
G01 X208.61 Y139.23
G01 X198.01 Y145.43
G01 X185.6 Y144.5
G01 X175.82 Y136.7
G01 X172.16 Y124.82
G01 X175.85 Y113.15
G01 X185.43 Y105.91
G01 X197.25 Y105.69
G01 X206.84 Y112.47999999999999
G01 X210.56 Y123.73
G01 X206.92000000000002 Y135.2
G01 X197.14 Y142.62
G01 X184.7 Y143.18
G01 X174.06 Y136.6
G01 X169.01 Y125.25
G01 X171.29 Y113.22999999999999
G01 X179.93 Y104.9
G01 X191.63 Y103.27000000000001
G01 X201.97 Y108.88
G01 X207.0 Y119.6
G01 X204.76 Y131.43
G01 X195.93 Y139.96
G01 X183.65 Y142.0
G01 X172.29 Y136.74
G01 X165.92 Y126.07
G01 X166.75 Y113.87
G01 X174.34 Y104.57
G01 X185.77 Y101.56
G01 X196.69 Y105.9
G01 X202.97 Y115.94
G01 X202.15 Y127.96000000000001
G01 X194.4 Y137.49
G01 X182.45 Y140.98
G01 X170.55 Y137.11
G01 X162.95 Y127.28
G01 X162.32 Y115.07
G01 X168.74 Y104.94
G01 X179.73 Y100.59
G01 X191.09 Y103.59
G01 X198.52 Y112.82
G01 X199.14 Y124.85
G01 X192.59 Y135.24
G01 X181.13 Y140.13
G01 X168.86 Y137.71
G01 X160.14 Y128.86
G01 X158.06 Y116.81
G01 X163.23 Y105.99000000000001
G01 X173.62 Y100.36
G01 X185.26 Y101.99000000000001
G01 X193.73 Y110.27000000000001
G01 X195.78 Y122.15
G01 X190.51 Y133.24
G01 X179.72 Y139.47
G01 X167.25 Y138.54
G01 X157.54 Y130.79
G01 X154.03 Y119.07
G01 X157.88 Y107.71000000000001
G01 X167.52 Y100.89
G01 X179.27 Y101.13
G01 X188.68 Y108.34
G01 X192.13 Y119.89
G01 X188.22 Y131.53
G01 X178.25 Y139.0
G01 X165.75 Y139.57
G01 X155.19 Y133.03
G01 X150.31 Y121.82
G01 X152.77 Y110.09
G01 X161.53 Y102.17
G01 X173.23 Y101.0
G01 X183.43 Y107.03999999999999
G01 X188.23 Y118.1
G01 X185.74 Y130.13
G01 X176.73 Y138.74
G01 X164.39 Y140.79
G01 X153.12 Y135.56
G01 X146.94 Y125.02
G01 X147.99 Y113.08
G01 X155.75 Y104.17
G01 X167.22 Y101.62
G01 X178.07 Y106.41
G01 X184.15 Y116.81
G01 X183.11 Y129.06
G01 X175.2 Y138.68
G01 X163.19 Y142.19
G01 X151.38 Y138.35
G01 X143.99 Y128.62
G01 X143.61 Y116.64
G01 X150.25 Y106.87
G01 X161.34 Y102.97
G01 X172.68 Y106.44
G01 X179.96 Y116.05
G01 X180.39 Y128.32999999999998
G01 X173.68 Y138.83
G01 X162.18 Y143.75
G01 X150.0 Y141.34
G01 X141.5 Y132.56
G01 X139.69 Y120.72
G01 X145.12 Y110.22999999999999
G01 X155.67000000000002 Y105.03999999999999
G01 X167.34 Y107.13
G01 X175.72 Y115.8
G01 X177.62 Y127.95
G01 X172.21 Y139.18
G01 X161.37 Y145.43
G01 X149.0 Y144.5
G01 X139.51 Y136.8
G01 X136.31 Y125.25
G01 X140.45 Y114.19
G01 X150.31 Y107.78
G01 X162.14 Y108.47
G01 X171.5 Y116.08
G01 X174.83 Y127.92
G01 X170.8 Y139.71
G01 X160.79 Y147.22
G01 X148.39 Y147.77
G01 X138.06 Y141.25
G01 X133.5 Y130.17000000000002
G01 X136.3 Y118.71000000000001
G01 X145.32 Y111.17
G01 X157.16 Y110.44
G01 X167.36 Y116.88
G01 X172.07 Y128.24
G01 X169.48 Y140.43
G01 X160.44 Y149.08
G01 X148.2 Y151.1
G01 X137.16 Y145.87
G01 X131.32 Y135.41
G01 X132.73 Y123.69
G01 X140.79 Y115.14
G01 X152.46 Y113.0
G01 X163.36 Y118.19
G01 X169.4 Y128.9
G01 X168.28 Y141.32
G01 X160.33 Y150.98
G01 X148.42000000000002 Y154.45
G01 X136.84 Y150.57
G01 X129.8 Y140.89
G01 X129.8 Y129.09
G01 X136.79 Y119.63
G01 X148.12 Y116.12
G01 X159.56 Y119.97
G01 X166.84 Y129.89
G01 X167.21 Y142.35
G01 X160.48 Y152.89
G01 X149.06 Y157.76
G01 X137.11 Y155.29
G01 X128.96 Y146.52
G01 X127.56 Y134.8
G01 X133.37 Y124.58
G01 X144.21 Y119.74
G01 X156.03 Y122.2
G01 X164.44 Y131.18
G01 X166.29 Y143.51
G01 X160.87 Y154.78
G01 X150.12 Y160.98
G01 X137.96 Y159.95
G01 X128.82 Y152.21
G01 X126.03999999999999 Y140.74
G01 X130.59 Y129.9
G01 X140.78 Y123.81
G01 X152.81 Y124.85
G01 X162.23 Y132.76
G01 X165.54 Y144.78
G01 X161.5 Y156.62
G01 X151.57 Y164.05
G01 X139.38 Y164.48
G01 X129.39 Y157.89
G01 X125.25999999999999 Y146.83
G01 X128.49 Y135.53
G01 X137.88 Y128.26
G01 X149.95 Y127.86
G01 X160.25 Y134.6
G01 X164.98 Y146.14
G01 X162.38 Y158.37
G01 X153.41 Y166.93
G01 X141.35 Y168.81
G01 X130.65 Y163.46
G01 X125.24000000000001 Y152.98
G01 X127.1 Y141.36
G01 X135.56 Y133.03
G01 X147.5 Y131.19
G01 X158.53 Y136.65
G01 X164.6 Y147.55
G01 X163.48 Y160.0
G01 X155.59 Y169.57
G01 X143.85 Y172.88
G01 X132.59 Y168.84
G01 X125.97 Y159.07
G01 X126.44 Y147.32
G01 X133.84 Y138.04
G01 X145.48 Y134.79
G01 X157.09 Y138.9
G01 X164.41 Y148.99
G01 X164.79 Y161.49
G01 X158.11 Y171.93
G01 X146.84 Y176.61
G01 X135.18 Y173.94
G01 X127.45 Y165.04
G01 X126.50999999999999 Y153.31
G01 X132.76 Y143.22
G01 X143.93 Y138.6
G01 X155.95 Y141.29
G01 X164.43 Y150.44
G01 X166.29 Y162.8
G01 X160.9 Y173.97
G01 X150.28 Y179.96
G01 X138.39 Y178.69
G01 X129.65 Y170.78
G01 X127.32 Y159.25
G01 X132.32999999999998 Y148.48
G01 X142.87 Y142.56
G01 X155.12 Y143.8
G01 X164.63 Y151.87
G01 X167.96 Y163.92
G01 X163.94 Y175.65
G01 X154.12 Y182.86
G01 X142.16 Y183.02
G01 X132.54 Y176.2
G01 X128.86 Y165.03
G01 X132.54 Y153.74
G01 X142.31 Y146.6
G01 X154.62 Y146.37
G01 X165.03 Y153.25
G01 X169.78 Y164.82
G01 X167.18 Y176.94
G01 X158.29 Y185.27
G01 X146.44 Y186.86
G01 X136.07 Y181.23
G01 X131.09 Y170.57
G01 X133.41 Y158.92
G01 X142.25 Y150.68
G01 X154.45 Y148.98
G01 X165.61 Y154.56
G01 X171.7 Y165.48
G01 X170.58 Y177.82
G01 X162.74 Y187.15
G01 X151.16 Y190.14
G01 X140.2 Y185.78
G01 X133.99 Y175.8
G01 X134.9 Y163.95
G01 X142.7 Y154.71
G01 X154.61 Y151.57
G01 X166.36 Y155.78
G01 X173.71 Y165.89
G01 X174.06 Y178.28
G01 X167.39 Y188.47
G01 X156.26 Y192.82
G01 X144.86 Y189.8
G01 X137.5 Y180.62
G01 X136.99 Y168.75
G01 X143.64 Y158.64
G01 X155.09 Y154.1
G01 X167.26 Y156.88
G01 X175.77 Y166.04
G01 X177.6 Y178.3
G01 X172.19 Y189.21
G01 X161.65 Y194.85
G01 X149.98 Y193.21
G01 X141.57999999999998 Y184.97
G01 X139.66 Y173.25
G01 X145.05 Y162.41
G01 X155.89 Y156.54
G01 X168.3 Y157.85
G01 X177.84 Y165.93
G01 X181.12 Y177.87
G01 X177.05 Y189.35
G01 X167.27 Y196.2
G01 X155.48 Y195.97
G01 X146.16 Y188.79
G01 X142.86 Y177.37
G01 X146.92000000000002 Y165.97
G01 X156.98 Y158.84
G01 X169.46 Y158.66
G01 X179.89 Y165.54
G01 X184.57 Y177.01
G01 X181.91 Y188.89
G01 X173.01 Y196.86
G01 X161.28 Y198.02
G01 X151.17000000000002 Y192.01
G01 X146.53 Y181.06
G01 X149.21 Y169.26
G01 X158.34 Y160.98
G01 X170.71 Y159.31
G01 X181.89 Y164.89
G01 X187.91 Y175.72
G01 X186.68 Y187.82999999999998
G01 X178.79 Y196.8
G01 X167.29 Y199.35
G01 X156.53 Y194.57999999999998
G01 X150.62 Y184.27
G01 X151.87 Y172.22
G01 X159.96 Y162.91
G01 X172.04 Y159.78
G01 X183.81 Y163.99
G01 X191.07 Y174.02
G01 X191.29 Y186.19
G01 X184.53 Y196.03
G01 X173.41 Y199.93
G01 X162.17 Y196.48
G01 X155.07 Y186.94
G01 X154.88 Y174.82999999999998
G01 X161.79 Y164.62
G01 X173.41 Y160.06
G01 X185.6 Y162.84
G01 X194.01 Y171.93
G01 X195.68 Y183.98
G01 X190.14 Y194.55
G01 X179.57 Y199.76
G01 X167.99 Y197.66
G01 X159.8 Y189.03
G01 X158.17000000000002 Y177.03
G01 X163.82 Y166.07
G01 X174.81 Y160.15
G01 X187.24 Y161.46
G01 X196.67000000000002 Y169.48
G01 X199.77 Y181.24
G01 X195.53 Y192.4
G01 X185.65 Y198.82
G01 X173.9 Y198.12
G01 X164.75 Y190.53
G01 X161.69 Y178.8
G01 X165.99 Y167.24
G01 X176.21 Y160.06
G01 X188.7 Y159.87
G01 X199.02 Y166.7
G01 X203.5 Y178.01
G01 X200.62 Y189.59
G01 X191.57 Y197.15
G01 X179.83 Y197.85
G01 X169.83 Y191.4
G01 X165.4 Y180.12
G01 X168.29 Y168.12
G01 X177.57 Y159.77
G01 X189.96 Y158.09
G01 X201.02 Y163.65
G01 X206.81 Y174.34
G01 X205.32999999999998 Y186.18
G01 X197.25 Y194.76
G01 X185.67 Y196.85
G01 X174.97 Y191.63
G01 X169.23 Y180.96
G01 X170.67 Y168.71
G01 X178.88 Y159.31
G01 X190.98 Y156.16
G01 X202.62 Y160.35
G01 X209.65 Y170.28
G01 X209.59 Y182.21
G01 X202.59 Y191.68
G01 X191.34 Y195.14
G01 X180.09 Y191.24
G01 X173.12 Y181.32999999999998
G01 X173.08 Y168.98
G01 X180.12 Y158.67
G01 X191.75 Y154.1
G01 X203.81 Y156.87
G01 X211.96 Y165.89
G01 X213.32999999999998 Y177.74
G01 X207.5 Y187.98
G01 X196.74 Y192.75
G01 X185.12 Y190.21
G01 X177.0 Y181.2
G01 X175.5 Y168.95
G01 X181.25 Y157.87
G01 X192.26 Y151.94
G01 X204.56 Y153.26
G01 X213.73 Y161.23
G01 X216.49 Y172.84
G01 X211.93 Y183.7
G01 X201.81 Y189.72
G01 X189.96 Y188.57999999999998
G01 X180.83 Y180.6
G01 X177.88 Y168.61
G01 X182.27 Y156.92
G01 X192.48 Y149.72
G01 X204.85 Y149.56
G01 X214.91 Y156.39
G01 X219.03 Y167.57999999999998
G01 X215.79 Y178.9
G01 X206.47 Y186.07999999999998
G01 X194.56 Y186.36
G01 X184.55 Y179.53
G01 X180.18 Y167.98
G01 X183.14 Y155.85
G01 X192.43 Y147.48
G01 X204.68 Y145.84
G01 X215.48 Y151.42
G01 X220.91 Y162.04
G01 X219.04 Y173.67000000000002
G01 X210.63 Y181.91
G01 X198.85 Y183.6
G01 X188.08 Y178.01
G01 X182.37 Y167.06
G01 X183.86 Y154.66
G01 X192.07999999999998 Y145.25
G01 X204.05 Y142.16
G01 X215.43 Y146.41
G01 X222.09 Y156.3
G01 X221.62 Y168.07
G01 X214.25 Y177.26
G01 X202.75 Y180.35
G01 X191.39 Y176.07
G01 X184.41 Y165.88
G01 X184.41 Y153.39
G01 X191.45 Y143.07
G01 X202.97 Y138.57
G01 X214.77 Y141.44
G01 X222.55 Y150.46
G01 X223.49 Y162.2
G01 X217.27 Y172.2
G01 X206.21 Y176.64
G01 X194.43 Y173.75
G01 X186.27 Y164.46
G01 X184.79 Y152.06
G01 X190.54 Y140.97
G01 X201.44 Y135.14
G01 X213.49 Y136.57
G01 X222.29 Y144.6
G01 X224.62 Y156.15
G01 X219.63 Y166.81
G01 X209.18 Y172.54
G01 X197.14 Y171.07999999999998
G01 X187.93 Y162.83
G01 X184.98 Y150.69
G01 X189.36 Y138.99
G01 X199.48 Y131.9
G01 X211.62 Y131.89
G01 X221.32 Y138.82
G01 X225.0 Y150.0

G91 ;Relative positioning
G1 Z5 F2400 ;Raise Z
G1 Z10 ;Raise Z more
G90 ;Absolute positionning

G1 X0 Y{machine_depth} ;Present print
M106 S0 ;Turn-off fan

M84 X Y E ;Disable all steppers but Z
